static/assets/images/icons/previous.svg

<svg width="256" height="256" viewBox="0 0 256 256" fill="none" xmlns="http://www.w3.org/2000/svg">
<path fill-rule="evenodd" clip-rule="evenodd" d="M188.97 68.8657C190.615 67.7554 192.531 67.1154 194.511 67.0142C196.491 66.913 198.461 67.3544 200.21 68.2912C201.959 69.2279 203.422 70.6248 204.442 72.3323C205.462 74.0398 206.001 75.9937 206 77.985V179.017C206 181.015 205.458 182.974 204.432 184.685C203.406 186.396 201.934 187.793 200.176 188.727C198.418 189.66 196.44 190.095 194.455 189.983C192.469 189.871 190.552 189.218 188.909 188.093L135.208 151.333V179.017C135.208 181.015 134.666 182.974 133.64 184.685C132.614 186.396 131.143 187.793 129.385 188.727C127.627 189.66 125.648 190.095 123.663 189.983C121.677 189.871 119.76 189.218 118.117 188.093L43.768 137.199C42.2926 136.187 41.0866 134.827 40.2554 133.239C39.4242 131.65 38.9932 129.882 39.0001 128.087C39.007 126.293 39.4516 124.527 40.295 122.945C41.1384 121.364 42.3548 120.013 43.838 119.013L118.178 68.8657C119.824 67.7554 121.739 67.1154 123.719 67.0142C125.699 66.913 127.669 67.3544 129.418 68.2912C131.168 69.2279 132.63 70.6248 133.65 72.3323C134.67 74.0398 135.209 75.9937 135.208 77.985V105.132L188.97 68.8657Z" fill="black"/>
</svg>

<svg xmlns="http://www.w3.org/2000/svg" fill="none" viewBox="0 0 256 256"><path fill="#000" fill-rule="evenodd" d="M188.97 68.866a10.9 10.9 0 0 1 11.24-.575 10.96 10.96 0 0 1 4.232 4.041A11 11 0 0 1 206 77.985v101.032a11 11 0 0 1-1.568 5.668 10.96 10.96 0 0 1-4.256 4.042 10.89 10.89 0 0 1-11.267-.634l-53.701-36.76v27.684a11 11 0 0 1-1.568 5.668 10.96 10.96 0 0 1-4.255 4.042 10.9 10.9 0 0 1-11.268-.634l-74.349-50.894a11 11 0 0 1-3.513-3.96 11.02 11.02 0 0 1 .04-10.294 11 11 0 0 1 3.543-3.932l74.34-50.147a10.89 10.89 0 0 1 11.24-.575 10.95 10.95 0 0 1 4.232 4.041 11 11 0 0 1 1.558 5.653v27.147z" clip-rule="evenodd"/></svg>
